public/icon/Z_ALL/Oracle_B.svg

<?xml version="1.0" encoding="UTF-8"?>
<svg width="1024px" height="1024px" viewBox="0 0 1024 1024" version="1.1" xmlns="http://www.w3.org/2000/svg" xmlns:xlink="http://www.w3.org/1999/xlink">
    <title>Oracle_B</title>
    <g id="ICON-新版方图标" stroke="none" stroke-width="1" fill="none" fill-rule="evenodd">
        <g id="多版本" transform="translate(-2055, -6144)">
            <g id="Oracle" transform="translate(7, 6144)">
                <g id="Oracle_B" transform="translate(2048, 0)">
                    <rect id="蒙版路径" fill="#FFFFFF" x="0" y="0" width="1024" height="1024"></rect>
                    <path d="M509,753 C582.39832,753 582.501976,753 669.25,753 C815,753 893,599.035533 893,512 C893,413.141164 817.012879,271 669.25,271 C563.5,271 563.559531,271 509,271 C446.514428,271 492.5,271 347.5,271 C202.5,271 131,413.619938 131,512 C131,612.5 202.5,753 347.5,753 C430.5,753 430.414464,753 509,753 Z" id="椭圆形内" fill="#C74634"></path>
                    <path d="M508.748031,670 C563.844933,670 563.922743,670 629.040682,670 C738.448819,670 797,569.06064 797,512 C797,447.187983 739.959799,354 629.040682,354 C549.658793,354 549.70348,354 508.748031,354 C461.842851,354 484.351706,354 387.51706,354 C290.682415,354 227.75,450.449219 227.75,512 C227.75,566.926317 278.671916,670 387.51706,670 C449.821522,670 449.757315,670 508.748031,670 Z" id="椭圆形外" fill="#FFFFFF"></path>
                </g>
            </g>
        </g>
    </g>
</svg>

<svg xmlns="http://www.w3.org/2000/svg" width="1024" height="1024"><g fill="none" fill-rule="evenodd"><path fill="#FFF" d="M0 0h1024v1024H0z"/><path fill="#C74634" d="M509 753h160.25C815 753 893 599.036 893 512c0-98.859-75.987-241-223.75-241H347.5C202.5 271 131 413.62 131 512c0 100.5 71.5 241 216.5 241z"/><path fill="#FFF" d="M508.748 670h120.293C738.449 670 797 569.06 797 512c0-64.812-57.04-158-167.96-158H387.519c-96.836 0-159.768 96.45-159.768 158 0 54.926 50.922 158 159.767 158h121.231"/></g></svg>
